dist/img/vk.svg

<svg width="25" height="15" viewBox="0 0 25 15" fill="none" xmlns="http://www.w3.org/2000/svg">
<path fill-rule="evenodd" clip-rule="evenodd" d="M12.3269 14.1355H13.7486C13.7486 14.1355 14.1781 14.0896 14.3974 13.8594C14.5992 13.6481 14.5927 13.2513 14.5927 13.2513C14.5927 13.2513 14.5649 11.3935 15.4504 11.1199C16.3232 10.8504 17.444 12.9154 18.632 13.7094C19.5303 14.3104 20.2129 14.1786 20.2129 14.1786L23.3894 14.1355C23.3894 14.1355 25.051 14.0358 24.2631 12.7635C24.1986 12.6595 23.8043 11.8224 21.9014 10.1023C19.9097 8.30202 20.1764 8.59321 22.5756 5.47914C24.0368 3.58264 24.6209 2.42481 24.4385 1.92891C24.2644 1.4566 23.1898 1.58144 23.1898 1.58144L19.6133 1.60313C19.6133 1.60313 19.3482 1.56792 19.1515 1.68238C18.9594 1.79464 18.8357 2.05627 18.8357 2.05627C18.8357 2.05627 18.2697 3.52384 17.5147 4.77192C15.9221 7.4055 15.2853 7.5445 15.0251 7.38098C14.4196 6.99986 14.5708 5.84988 14.5708 5.03292C14.5708 2.48079 14.9683 1.41666 13.7967 1.1412C13.408 1.04969 13.1219 0.989314 12.1276 0.979566C10.8515 0.966673 9.77138 0.983339 9.15979 1.27516C8.75293 1.46918 8.43906 1.90155 8.63022 1.9264C8.86659 1.95721 9.40197 2.06696 9.68581 2.44337C10.0523 2.92889 10.0394 4.01943 10.0394 4.01943C10.0394 4.01943 10.2499 7.02375 9.5476 7.39701C9.0655 7.65298 8.40419 7.13035 6.98436 4.74111C6.25685 3.51724 5.70759 2.16444 5.70759 2.16444C5.70759 2.16444 5.60167 1.91162 5.41277 1.7764C5.18351 1.61257 4.86318 1.56037 4.86318 1.56037L1.46458 1.58207C1.46458 1.58207 0.954388 1.5959 0.767102 1.81193C0.600482 2.00407 0.753863 2.40154 0.753863 2.40154C0.753863 2.40154 3.41462 8.46365 6.42735 11.5186C9.18982 14.3195 12.3269 14.1355 12.3269 14.1355Z" fill="white"/>
</svg>

<svg width="25" height="15" fill="none" xmlns="http://www.w3.org/2000/svg"><path fill-rule="evenodd" clip-rule="evenodd" d="M12.327 14.136h1.422s.43-.046.648-.277c.202-.21.196-.608.196-.608s-.028-1.857.857-2.131c.873-.27 1.994 1.795 3.182 2.59.898.6 1.58.469 1.58.469l3.177-.043s1.662-.1.874-1.372c-.064-.104-.459-.942-2.362-2.662-1.991-1.8-1.725-1.509.675-4.623 1.46-1.896 2.045-3.054 1.863-3.55-.175-.472-1.25-.348-1.25-.348l-3.576.022s-.265-.035-.462.08c-.192.112-.315.373-.315.373s-.566 1.468-1.321 2.716c-1.593 2.633-2.23 2.772-2.49 2.609-.605-.381-.454-1.531-.454-2.348 0-2.552.397-3.616-.774-3.892-.389-.091-.675-.152-1.67-.161-1.276-.013-2.356.003-2.967.295-.407.194-.72.627-.53.651.237.031.772.141 1.056.517.366.486.353 1.576.353 1.576s.21 3.005-.491 3.378c-.482.256-1.144-.267-2.564-2.656-.727-1.224-1.276-2.577-1.276-2.577s-.106-.252-.295-.388a1.507 1.507 0 00-.55-.216l-3.398.022s-.51.014-.698.23c-.167.192-.013.59-.013.59s2.66 6.062 5.673 9.117c2.763 2.8 5.9 2.617 5.9 2.617z" fill="#fff"/></svg>
